icons/rail-metro-15.svg

<?xml version="1.0" encoding="utf-8"?>
<!-- Generator: Adobe Illustrator 19.2.1, SVG Export Plug-In . SVG Version: 6.00 Build 0)  -->
<!DOCTYPE svg PUBLIC "-//W3C//DTD SVG 1.1//EN" "http://www.w3.org/Graphics/SVG/1.1/DTD/svg11.dtd">
<svg version="1.1"
	 id="svg4619" inkscape:version="0.91+devel+osxmenu r12911" sodipodi:docname="rail-metro-15.svg" xmlns:cc="http://creativecommons.org/ns#" xmlns:dc="http://purl.org/dc/elements/1.1/" xmlns:inkscape="http://www.inkscape.org/namespaces/inkscape" xmlns:rdf="http://www.w3.org/1999/02/22-rdf-syntax-ns#" xmlns:sodipodi="http://sodipodi.sourceforge.net/DTD/sodipodi-0.dtd" xmlns:svg="http://www.w3.org/2000/svg"
	 xmlns="http://www.w3.org/2000/svg" xmlns:xlink="http://www.w3.org/1999/xlink" x="0px" y="0px" width="15px" height="15px"
	 viewBox="0 0 15 15" style="enable-background:new 0 0 15 15;" xml:space="preserve">
<path id="path5258" d="M5.5,0c0,0-0.75,0-1,1L3,6.5V10c0,1,1,1,1,1h7c0,0,1,0,1-1V6.5L10.5,1c-0.2727-1-1-1-1-1H5.5z M6.5,1.5h2
	c0,0,0.5357,0,0.75,1L10,6c0.2146,1.0017-1,1-1,1H6c0,0-1.2146,0.0017-1-1l0.75-3.5C5.9643,1.5,6.5,1.5,6.5,1.5z M5,8
	c0.5523,0,1,0.4477,1,1s-0.4477,1-1,1S4,9.5523,4,9S4.4477,8,5,8z M6.75,8h1.5C8.3885,8,8.5,8.1115,8.5,8.25S8.3885,8.5,8.25,8.5
	h-1.5C6.6115,8.5,6.5,8.3885,6.5,8.25S6.6115,8,6.75,8z M10,8c0.5523,0,1,0.4477,1,1s-0.4477,1-1,1S9,9.5523,9,9S9.4477,8,10,8z
	 M4.125,12L3,15h1.5l0.375-1h5.25l0.375,1H12l-1.125-3h-1.5l0.375,1h-4.5l0.375-1H4.125z"/>
</svg>

<?xml version="1.0" encoding="UTF-8" standalone="no"?>
<!-- Generator: Adobe Illustrator 17.1.0, SVG Export Plug-In . SVG Version: 6.00 Build 0)  -->

<svg
   xmlns:dc="http://purl.org/dc/elements/1.1/"
   xmlns:cc="http://creativecommons.org/ns#"
   xmlns:rdf="http://www.w3.org/1999/02/22-rdf-syntax-ns#"
   xmlns:svg="http://www.w3.org/2000/svg"
   xmlns="http://www.w3.org/2000/svg"
   xmlns:sodipodi="http://sodipodi.sourceforge.net/DTD/sodipodi-0.dtd"
   xmlns:inkscape="http://www.inkscape.org/namespaces/inkscape"
   version="1.1"
   id="svg4619"
   x="0px"
   y="0px"
   height='15'
   width='15'
   viewBox="0 0 15 15"
   enable-background="new 0 0 15 15"
   xml:space="preserve"
   inkscape:version="0.91+devel+osxmenu r12911"
   sodipodi:docname="rail-metro-15.svg"><metadata
     id="metadata8"><rdf:RDF><cc:Work
         rdf:about=""><dc:format>image/svg+xml</dc:format><dc:type
           rdf:resource="http://purl.org/dc/dcmitype/StillImage" /><dc:title></dc:title></cc:Work></rdf:RDF></metadata><defs
     id="defs6" /><sodipodi:namedview
     pagecolor="#ffffff"
     bordercolor="#666666"
     borderopacity="1"
     objecttolerance="10"
     gridtolerance="10"
     guidetolerance="10"
     inkscape:pageopacity="0"
     inkscape:pageshadow="2"
     inkscape:window-width="1194"
     inkscape:window-height="704"
     id="namedview4"
     showgrid="false"
     inkscape:snap-bbox="true"
     inkscape:bbox-paths="true"
     inkscape:bbox-nodes="true"
     inkscape:snap-bbox-edge-midpoints="true"
     inkscape:snap-bbox-midpoints="true"
     inkscape:object-paths="true"
     inkscape:snap-intersection-paths="true"
     inkscape:object-nodes="true"
     inkscape:snap-smooth-nodes="true"
     inkscape:zoom="16"
     inkscape:cx="5.758905"
     inkscape:cy="8.957289"
     inkscape:window-x="31"
     inkscape:window-y="8"
     inkscape:window-maximized="0"
     inkscape:current-layer="svg4619"><inkscape:grid
       type="xygrid"
       id="grid3336"
       spacingx="0.5"
       spacingy="0.5"
       color="#ff0000"
       opacity="0.1254902"
       empspacing="2" /></sodipodi:namedview><path
     style="opacity:1;fill:#000000;fill-opacity:1;stroke:none;stroke-width:1;stroke-linecap:round;stroke-linejoin:miter;stroke-miterlimit:4;stroke-dasharray:none;stroke-dashoffset:0;stroke-opacity:1"
     d="M 5.5 0 C 5.5 0 4.75 0 4.5 1 L 3 6.5 L 3 10 C 3 11 4 11 4 11 L 11 11 C 11 11 12 11 12 10 L 12 6.5 L 10.5 1 C 10.227273 0 9.5 0 9.5 0 L 5.5 0 z M 6.5 1.5 L 8.5 1.5 C 8.5 1.5 9.0357143 1.5 9.25 2.5 L 10 6 C 10.21464 7.0016547 9 7 9 7 L 6 7 C 6 7 4.7853597 7.0016548 5 6 L 5.75 2.5 C 5.9642857 1.5 6.5 1.5 6.5 1.5 z M 5 8 A 1 1 0 0 1 6 9 A 1 1 0 0 1 5 10 A 1 1 0 0 1 4 9 A 1 1 0 0 1 5 8 z M 6.75 8 L 8.25 8 C 8.3885 8 8.5 8.1115 8.5 8.25 C 8.5 8.3885 8.3885 8.5 8.25 8.5 L 6.75 8.5 C 6.6115 8.5 6.5 8.3885 6.5 8.25 C 6.5 8.1115 6.6115 8 6.75 8 z M 10 8 A 1 1 0 0 1 11 9 A 1 1 0 0 1 10 10 A 1 1 0 0 1 9 9 A 1 1 0 0 1 10 8 z M 4.125 12 L 3 15 L 4.5 15 L 4.875 14 L 10.125 14 L 10.5 15 L 12 15 L 10.875 12 L 9.375 12 L 9.75 13 L 5.25 13 L 5.625 12 L 4.125 12 z "
     id="path5258" /></svg>
